X: 5205
T: the Scallywag
P: Mikkel's Jig
C: Kim McGarrity
S: RSCDS 52-05
R: jig
Z: 2019 John Chambers <jc:trillian.mit.edu>
M: 6/8
L: 1/8
K: Bm
f |\
"Bm"dBc "A/D"d2c | "Bm"BFF F2f | "Bm"dBc "E7"d2B | "A"AEE "A#/F#7"E2f |\
"Bm"dBc d2c | "G"Bde "Em7"g2e | "Bm"ebf "F#7"d2c | "Bm"dBB B2 ||
"A7"c |\
"D"dfd "A"e2g | "Bm"fbf "A7"g2a | "D"fed "A"edc | "G"B2d "F#m7"c2A |\
"Bm"BdB "A7"c2e | "D"def "Em7"g2a | "F#/Bm"b2f "F#7"d2c | "Bm"dBB B2 |]
